X: 100213
M: C|
L: 1/8
K: A
u((3EFG) !segno!|\
v((3cBA) (eA) (fA) (eA) | ((3cBA) (ec) dBGB | ((3cBA) (ec) ((3fec) ((3efg) | aecA {c}BAFE |
((3cBA) (eA) (fA) (eA) | (ae)c'a bg ((3efg) | afge fdec | ((3dcB) ((3cBA) BAGB !segno!:|


